lib/assets/images/arrow_up.svg

<svg width="16" height="16" viewBox="0 0 16 16" fill="none" xmlns="http://www.w3.org/2000/svg">
<path fill-rule="evenodd" clip-rule="evenodd" d="M7.60363 5.81058L1.63388 11.7803C1.34099 12.0732 0.866117 12.0732 0.573223 11.7803L0.21967 11.4268C-0.0732231 11.1339 -0.0732234 10.659 0.21967 10.3661L6.54297 4.04282C7.12876 3.45703 8.0785 3.45703 8.66429 4.04282L14.9875 10.3661C15.2804 10.659 15.2804 11.1338 14.9875 11.4267L14.634 11.7803C14.3411 12.0732 13.8662 12.0732 13.5733 11.7803L7.60363 5.81058Z" fill="black"/>
</svg>

<svg width="16" height="16" fill="none" xmlns="http://www.w3.org/2000/svg"><path fill-rule="evenodd" clip-rule="evenodd" d="M7.604 5.81l-5.97 5.97a.75.75 0 0 1-1.06 0l-.354-.353a.75.75 0 0 1 0-1.06l6.323-6.324a1.5 1.5 0 0 1 2.121 0l6.324 6.323a.75.75 0 0 1 0 1.06l-.354.354a.75.75 0 0 1-1.06 0l-5.97-5.97z" fill="#000"/></svg>
